Numix-GalliumOS/24/categories/preferences-desktop-accessibility.svg

<?xml version="1.0" encoding="UTF-8" standalone="no"?>
<!-- Created with Inkscape (http://www.inkscape.org/) -->

<svg
   xmlns:dc="http://purl.org/dc/elements/1.1/"
   xmlns:cc="http://creativecommons.org/ns#"
   xmlns:rdf="http://www.w3.org/1999/02/22-rdf-syntax-ns#"
   xmlns:svg="http://www.w3.org/2000/svg"
   xmlns="http://www.w3.org/2000/svg"
   xmlns:sodipodi="http://sodipodi.sourceforge.net/DTD/sodipodi-0.dtd"
   xmlns:inkscape="http://www.inkscape.org/namespaces/inkscape"
   version="1.0"
   width="24"
   height="24"
   id="svg3366"
   inkscape:version="0.91 r"
   sodipodi:docname="preferences-desktop-accessibility.svg">
  <metadata
     id="metadata30">
    <rdf:RDF>
      <cc:Work
         rdf:about="">
        <dc:format>image/svg+xml</dc:format>
        <dc:type
           rdf:resource="http://purl.org/dc/dcmitype/StillImage" />
        <dc:title />
      </cc:Work>
    </rdf:RDF>
  </metadata>
  <sodipodi:namedview
     pagecolor="#ffffff"
     bordercolor="#666666"
     borderopacity="1"
     objecttolerance="10"
     gridtolerance="10"
     guidetolerance="10"
     inkscape:pageopacity="0"
     inkscape:pageshadow="2"
     inkscape:window-width="1920"
     inkscape:window-height="1056"
     id="namedview28"
     showgrid="true"
     inkscape:zoom="11.313709"
     inkscape:cx="-7.665872"
     inkscape:cy="13.036372"
     inkscape:window-x="0"
     inkscape:window-y="24"
     inkscape:window-maximized="1"
     inkscape:current-layer="svg3366">
    <inkscape:grid
       type="xygrid"
       id="grid4158" />
  </sodipodi:namedview>
  <defs
     id="defs3368" />
  <path
     style="fill:#698ecc;fill-opacity:1;stroke:none;stroke-width:1.003654;stroke-linecap:round;stroke-linejoin:round;stroke-miterlimit:4;stroke-dasharray:none;stroke-dashoffset:0;stroke-opacity:1"
     d="M 12,2 C 6.482345,2 2,6.4823445 2,12 2,17.517655 6.482345,22.000002 12,22 17.517653,22 22.000005,17.517655 22,12 22,6.4823445 17.517653,2 12,2 Z m 0.06934,3.5 c 0.803338,0 1.455078,0.6665725 1.455078,1.488281 0,0.821705 -0.65174,1.489258 -1.455078,1.489258 -0.803338,0 -1.456055,-0.6675525 -1.456055,-1.489258 C 10.613281,6.166573 11.265998,5.5 12.069336,5.5 Z M 6.8251955,8.544922 C 6.900331,8.547672 6.977288,8.562427 7.055664,8.576172 L 12,9.44336 16.964844,8.6123045 c 0.06722,-0.011255 0.124095,-0.029885 0.191406,-0.041015 0.192625,-0.02189 0.381437,0.083984 0.450195,0.2646485 0.06875,0.180643 5.5e-4,0.390032 -0.158203,0.500976 l -3.87793,1.340821 0.002,2.844726 1.341797,4.340821 c 0.117044,0.204151 0.04564,0.463422 -0.159179,0.580078 -0.204824,0.116648 -0.465959,0.04595 -0.583008,-0.158203 L 12.007809,13.62793 9.800778,18.293946 C 9.669094,18.490796 9.388911,18.530652 9.191403,18.399415 8.9939,18.268199 8.954263,18.015182 9.085934,17.81836 l 1.367188,-4.322266 0.02637,-2.886718 L 6.605469,9.35254 C 6.464419,9.278648 6.364306,9.142194 6.366206,8.983399 6.368156,8.824626 6.462646,8.657312 6.605464,8.5869145 c 0.071408,-0.0352 0.1445905,-0.04476 0.2197265,-0.04199 z"
     id="path2555"
     inkscape:connector-curvature="0" />
</svg>

<svg xmlns="http://www.w3.org/2000/svg" viewBox="0 0 24 24">
 <path d="m 12 2 c -5.518 0 -10 4.482 -10 10 0 5.518 4.482 10 10 10 5.518 0 10 -4.482 10 -10 0 -5.518 -4.482 -10 -10 -10 m 0.069 3.5 c 0.803 0 1.455 0.667 1.455 1.488 0 0.822 -0.652 1.489 -1.455 1.489 -0.803 0 -1.456 -0.668 -1.456 -1.489 c 0 -0.822 0.653 -1.488 1.456 -1.488 m -5.244 3.045 c 0.075 0.003 0.152 0.018 0.23 0.031 l 4.944 0.867 4.965 -0.831 c 0.067 -0.011 0.124 -0.03 0.191 -0.041 0.193 -0.022 0.381 0.084 0.45 0.265 0.069 0.181 0.001 0.39 -0.158 0.501 l -3.878 1.341 0.002 2.845 1.342 4.341 c 0.117 0.204 0.046 0.463 -0.159 0.58 -0.205 0.117 -0.466 0.046 -0.583 -0.158 l -2.164 -4.657 -2.207 4.666 c -0.132 0.197 -0.412 0.237 -0.609 0.105 -0.198 -0.131 -0.237 -0.384 -0.105 -0.581 l 1.367 -4.322 0.026 -2.887 l -3.874 -1.257 c -0.141 -0.074 -0.241 -0.21 -0.239 -0.369 0.002 -0.159 0.096 -0.326 0.239 -0.396 c 0.071 -0.035 0.145 -0.045 0.22 -0.042 z" style="fill:#698ecc;fill-opacity:1;stroke:none"/>
</svg>
